src/page/pc/asset/image/wechat.svg

<svg class="icon" viewBox="0 0 1024 1024" xmlns="http://www.w3.org/2000/svg" width="16" height="16"><defs><style/></defs><path d="M693.12 347.264c11.776 0 23.36.896 35.008 2.176-31.36-146.048-187.456-254.528-365.696-254.528C163.2 94.912 0 230.656 0 403.136c0 99.52 54.272 181.248 145.024 244.736L108.8 756.864l126.72-63.488c45.312 8.896 81.664 18.112 126.912 18.112 11.392 0 22.656-.512 33.792-1.344-7.04-24.256-11.2-49.6-11.2-76.032.064-158.336 136-286.848 308.096-286.848zm-194.816-98.24c27.392 0 45.376 17.984 45.376 45.248 0 27.136-17.984 45.312-45.376 45.312-27.072 0-54.336-18.176-54.336-45.312 0-27.328 27.2-45.248 54.336-45.248zm-253.632 90.56c-27.2 0-54.592-18.176-54.592-45.312 0-27.264 27.392-45.248 54.592-45.248s45.248 17.92 45.248 45.248c0 27.136-18.048 45.312-45.248 45.312zM1024 629.76c0-144.896-145.024-262.976-307.904-262.976-172.48 0-308.224 118.144-308.224 262.976 0 145.28 135.808 262.976 308.224 262.976 36.096 0 72.512-9.024 108.736-18.112l99.392 54.528-27.264-90.624C969.728 783.872 1024 711.488 1024 629.76zm-407.872-45.376c-17.984 0-36.224-17.92-36.224-36.224 0-18.048 18.24-36.224 36.224-36.224 27.52 0 45.376 18.176 45.376 36.224 0 18.304-17.856 36.224-45.376 36.224zm199.36 0c-17.856 0-36.032-17.92-36.032-36.224 0-18.048 18.112-36.224 36.032-36.224 27.264 0 45.376 18.176 45.376 36.224 0 18.304-18.112 36.224-45.376 36.224z"/></svg>

<?xml version="1.0" standalone="no"?><!DOCTYPE svg PUBLIC "-//W3C//DTD SVG 1.1//EN" "http://www.w3.org/Graphics/SVG/1.1/DTD/svg11.dtd">
<svg t="1542935944749" class="icon" style="" viewBox="0 0 1024 1024" version="1.1" 
    xmlns="http://www.w3.org/2000/svg" p-id="3435" 
    xmlns:xlink="http://www.w3.org/1999/xlink" width="16" height="16">
    <defs>
        <style type="text/css"></style>
    </defs>
    <path d="M693.12 347.264c11.776 0 23.36 0.896 35.008 2.176-31.36-146.048-187.456-254.528-365.696-254.528C163.2 94.912 0 230.656 0 403.136c0 99.52 54.272 181.248 145.024 244.736L108.8 756.864l126.72-63.488c45.312 8.896 81.664 18.112 126.912 18.112 11.392 0 22.656-0.512 33.792-1.344-7.04-24.256-11.2-49.6-11.2-76.032C385.088 475.776 521.024 347.264 693.12 347.264zM498.304 249.024c27.392 0 45.376 17.984 45.376 45.248 0 27.136-17.984 45.312-45.376 45.312-27.072 0-54.336-18.176-54.336-45.312C443.968 266.944 471.168 249.024 498.304 249.024zM244.672 339.584c-27.2 0-54.592-18.176-54.592-45.312 0-27.264 27.392-45.248 54.592-45.248S289.92 266.944 289.92 294.272C289.92 321.408 271.872 339.584 244.672 339.584zM1024 629.76c0-144.896-145.024-262.976-307.904-262.976-172.48 0-308.224 118.144-308.224 262.976 0 145.28 135.808 262.976 308.224 262.976 36.096 0 72.512-9.024 108.736-18.112l99.392 54.528-27.264-90.624C969.728 783.872 1024 711.488 1024 629.76zM616.128 584.384c-17.984 0-36.224-17.92-36.224-36.224 0-18.048 18.24-36.224 36.224-36.224 27.52 0 45.376 18.176 45.376 36.224C661.504 566.464 643.648 584.384 616.128 584.384zM815.488 584.384c-17.856 0-36.032-17.92-36.032-36.224 0-18.048 18.112-36.224 36.032-36.224 27.264 0 45.376 18.176 45.376 36.224C860.864 566.464 842.752 584.384 815.488 584.384z" p-id="3436"></path>
</svg>
